icons/document-arrow-up-outline.svg

<svg xmlns="http://www.w3.org/2000/svg" width="24" height="24" viewBox="0 0 24 24">
  <path d="M12,1 L12,8 C12,8.55228475 12.4477153,9 13,9 L20,9 L20,21 C20,22.1045695 19.1045695,23 18,23 L6,23 C4.8954305,23 4,22.1045695 4,21 L4,3 C4,1.8954305 4.8954305,1 6,1 L12,1 Z M10,3 L6,3 L6,21 L18,21 L18,11 L13,11 C11.4023191,11 10.0963391,9.75108004 10.0050927,8.17627279 L10,8 L10,3 Z M12,12 L12.019,12.001 L12.03,12.001 L12.081,12.003 L12.1489612,12.0110193 L12.1489612,12.0110193 C12.165949,12.0136281 12.1833753,12.0167022 12.2007258,12.0202401 C12.2227461,12.0246398 12.2444365,12.0298336 12.2658396,12.035721 C12.2814633,12.0400977 12.2968513,12.0447287 12.3121425,12.0497381 C12.3317977,12.0561225 12.3515792,12.0633157 12.3710585,12.071104 L12.4232215,12.0936734 L12.4232215,12.0936734 C12.4438914,12.1033766 12.4642939,12.1137939 12.484277,12.1248758 C12.4963944,12.1314988 12.5086131,12.1386069 12.5207088,12.1459955 C12.546275,12.1617187 12.5711307,12.1784901 12.5951593,12.1963135 C12.6012086,12.2007179 12.6070733,12.2051745 12.6128994,12.2097046 C12.6196628,12.2150711 12.6225624,12.2173721 12.625449,12.2196888 L12.7071068,12.2928932 L15.7071068,15.2928932 C16.0976311,15.6834175 16.0976311,16.3165825 15.7071068,16.7071068 C15.3466228,17.0675907 14.7793918,17.0953203 14.3871006,16.7902954 L14.2928932,16.7071068 L13,15.415 L13,19 C13,19.5522847 12.5522847,20 12,20 C11.4871642,20 11.0644928,19.6139598 11.0067277,19.1166211 L11,19 L11,15.415 L9.70710678,16.7071068 C9.31658249,17.0976311 8.68341751,17.0976311 8.29289322,16.7071068 C7.93240926,16.3466228 7.90467972,15.7793918 8.20970461,15.3871006 L8.29289322,15.2928932 L11.2928932,12.2928932 L11.37,12.224 L11.38,12.215 L11.4046934,12.1963346 L11.4046934,12.1963346 C11.4288693,12.1784901 11.453725,12.1617187 11.4793398,12.1460674 L11.5159379,12.1246712 L11.5159379,12.1246712 C11.5357061,12.1137939 11.5561086,12.1033766 11.5769009,12.0936538 L11.628664,12.0712255 L11.628664,12.0712255 C11.6484208,12.0633157 11.6682023,12.0561225 11.6882636,12.0495467 C11.7031487,12.0447287 11.7185367,12.0400977 11.734007,12.0358451 C11.7555635,12.0298336 11.7772539,12.0246398 11.7992059,12.0201652 C11.8166247,12.0167022 11.834051,12.0136281 11.8515331,12.0110178 L11.909968,12.003998 L11.909968,12.003998 C11.9208131,12.00307 11.9308872,12.0023256 11.9409686,12.0017331 L11.980824,12.0001802 L12,12 L12,12 Z M14,1 L20,7 L15,7 C14.4871642,7 14.0644928,6.61395981 14.0067277,6.11662113 L14,6 L14,1 Z"/>
</svg>

<svg xmlns="http://www.w3.org/2000/svg" viewBox="0 0 24 24">
  <path d="M12 1v7a1 1 0 0 0 1 1h7v12a2 2 0 0 1-2 2H6a2 2 0 0 1-2-2V3c0-1.1.9-2 2-2h6zm-2 2H6v18h12V11h-5a3 3 0 0 1-3-2.82V3zm2 9h.08l.07.01a1.08 1.08 0 0 1 .22.06l.05.02a1.02 1.02 0 0 1 .2.13l.09.07 3 3a1 1 0 0 1-1.32 1.5l-.1-.08L13 15.4V19a1 1 0 0 1-2 .12V15.4l-1.3 1.3a1 1 0 0 1-1.49-1.32l.08-.1 3-3 .08-.07h.01l.02-.02.08-.05.04-.03.06-.03.05-.02a.99.99 0 0 1 .22-.06h.09l.04-.01H12zm2-11 6 6h-5a1 1 0 0 1-1-.88V1z"/>
</svg>
